dist/svgs/geomicons-open/icons/shoppingcart.svg

<svg xmlns="http://www.w3.org/2000/svg" viewBox="0 0 32 32"><path d="M0 4h5l1 4h24l-2 14H6L3.5 6H0zm10 20a3 3 0 000 6 3 3 0 000-6m14 0a3 3 0 000 6 3 3 0 000-6"/></svg>

<svg id="shoppingCart" xmlns="http://www.w3.org/2000/svg" viewBox="0 0 32 32" width="32" height="32" fill="currentcolor">
  <path d="M0 4 L5 4 L6 8 L30 8 L28 22 L6 22 L3.5 6 L0 6z M10 24 A3 3 0 0 0 10 30 A3 3 0 0 0 10 24 M24 24 A3 3 0 0 0 24 30 A3 3 0 0 0 24 24"></path>
</svg>
